groups/aromatics/phenanthrene.svg

<?xml version='1.0' encoding='iso-8859-1'?>
<svg version='1.1' baseProfile='full'
              xmlns='http://www.w3.org/2000/svg'
                      xmlns:rdkit='http://www.rdkit.org/xml'
                      xmlns:xlink='http://www.w3.org/1999/xlink'
                  xml:space='preserve'
width='256px' height='256px' viewBox='0 0 256 256'>
<!-- END OF HEADER -->
<rect style='opacity:1.0;fill:#FFFFFF;stroke:none' width='256.0' height='256.0' x='0.0' y='0.0'> </rect>
<path class='bond-0 atom-0 atom-1' d='M 23.3,63.2 L 59.9,84.2' style='fill:none;fill-rule:evenodd;stroke:#000000;stroke-width:2.0px;stroke-linecap:butt;stroke-linejoin:miter;stroke-opacity:1' />
<path class='bond-1 atom-1 atom-2' d='M 59.9,84.2 L 96.4,63.1' style='fill:none;fill-rule:evenodd;stroke:#000000;stroke-width:2.0px;stroke-linecap:butt;stroke-linejoin:miter;stroke-opacity:1' />
<path class='bond-1 atom-1 atom-2' d='M 66.2,87.9 L 96.4,70.4' style='fill:none;fill-rule:evenodd;stroke:#000000;stroke-width:2.0px;stroke-linecap:butt;stroke-linejoin:miter;stroke-opacity:1' />
<path class='bond-2 atom-2 atom-3' d='M 96.4,63.1 L 133.0,84.1' style='fill:none;fill-rule:evenodd;stroke:#000000;stroke-width:2.0px;stroke-linecap:butt;stroke-linejoin:miter;stroke-opacity:1' />
<path class='bond-3 atom-3 atom-4' d='M 133.0,84.1 L 133.1,126.3' style='fill:none;fill-rule:evenodd;stroke:#000000;stroke-width:2.0px;stroke-linecap:butt;stroke-linejoin:miter;stroke-opacity:1' />
<path class='bond-3 atom-3 atom-4' d='M 126.6,87.8 L 126.7,122.6' style='fill:none;fill-rule:evenodd;stroke:#000000;stroke-width:2.0px;stroke-linecap:butt;stroke-linejoin:miter;stroke-opacity:1' />
<path class='bond-4 atom-4 atom-5' d='M 133.1,126.3 L 96.6,147.5' style='fill:none;fill-rule:evenodd;stroke:#000000;stroke-width:2.0px;stroke-linecap:butt;stroke-linejoin:miter;stroke-opacity:1' />
<path class='bond-5 atom-5 atom-6' d='M 96.6,147.5 L 60.0,126.4' style='fill:none;fill-rule:evenodd;stroke:#000000;stroke-width:2.0px;stroke-linecap:butt;stroke-linejoin:miter;stroke-opacity:1' />
<path class='bond-5 atom-5 atom-6' d='M 96.5,140.1 L 66.3,122.8' style='fill:none;fill-rule:evenodd;stroke:#000000;stroke-width:2.0px;stroke-linecap:butt;stroke-linejoin:miter;stroke-opacity:1' />
<path class='bond-6 atom-5 atom-7' d='M 96.6,147.5 L 96.6,189.6' style='fill:none;fill-rule:evenodd;stroke:#000000;stroke-width:2.0px;stroke-linecap:butt;stroke-linejoin:miter;stroke-opacity:1' />
<path class='bond-7 atom-7 atom-8' d='M 96.6,189.6 L 133.2,210.7' style='fill:none;fill-rule:evenodd;stroke:#000000;stroke-width:2.0px;stroke-linecap:butt;stroke-linejoin:miter;stroke-opacity:1' />
<path class='bond-7 atom-7 atom-8' d='M 103.0,186.0 L 133.2,203.4' style='fill:none;fill-rule:evenodd;stroke:#000000;stroke-width:2.0px;stroke-linecap:butt;stroke-linejoin:miter;stroke-opacity:1' />
<path class='bond-8 atom-8 atom-9' d='M 133.2,210.7 L 169.7,189.5' style='fill:none;fill-rule:evenodd;stroke:#000000;stroke-width:2.0px;stroke-linecap:butt;stroke-linejoin:miter;stroke-opacity:1' />
<path class='bond-9 atom-9 atom-10' d='M 169.7,189.5 L 206.3,210.5' style='fill:none;fill-rule:evenodd;stroke:#000000;stroke-width:2.0px;stroke-linecap:butt;stroke-linejoin:miter;stroke-opacity:1' />
<path class='bond-9 atom-9 atom-10' d='M 176.0,185.8 L 206.3,203.2' style='fill:none;fill-rule:evenodd;stroke:#000000;stroke-width:2.0px;stroke-linecap:butt;stroke-linejoin:miter;stroke-opacity:1' />
<path class='bond-10 atom-10 atom-11' d='M 206.3,210.5 L 242.8,189.4' style='fill:none;fill-rule:evenodd;stroke:#000000;stroke-width:2.0px;stroke-linecap:butt;stroke-linejoin:miter;stroke-opacity:1' />
<path class='bond-11 atom-11 atom-12' d='M 242.8,189.4 L 242.7,147.2' style='fill:none;fill-rule:evenodd;stroke:#000000;stroke-width:2.0px;stroke-linecap:butt;stroke-linejoin:miter;stroke-opacity:1' />
<path class='bond-11 atom-11 atom-12' d='M 236.5,185.7 L 236.4,150.8' style='fill:none;fill-rule:evenodd;stroke:#000000;stroke-width:2.0px;stroke-linecap:butt;stroke-linejoin:miter;stroke-opacity:1' />
<path class='bond-12 atom-12 atom-13' d='M 242.7,147.2 L 206.1,126.1' style='fill:none;fill-rule:evenodd;stroke:#000000;stroke-width:2.0px;stroke-linecap:butt;stroke-linejoin:miter;stroke-opacity:1' />
<path class='bond-13 atom-13 atom-14' d='M 206.1,126.1 L 169.6,147.3' style='fill:none;fill-rule:evenodd;stroke:#000000;stroke-width:2.0px;stroke-linecap:butt;stroke-linejoin:miter;stroke-opacity:1' />
<path class='bond-13 atom-13 atom-14' d='M 206.1,133.5 L 176.0,151.0' style='fill:none;fill-rule:evenodd;stroke:#000000;stroke-width:2.0px;stroke-linecap:butt;stroke-linejoin:miter;stroke-opacity:1' />
<path class='bond-14 atom-6 atom-1' d='M 60.0,126.4 L 59.9,84.2' style='fill:none;fill-rule:evenodd;stroke:#000000;stroke-width:2.0px;stroke-linecap:butt;stroke-linejoin:miter;stroke-opacity:1' />
<path class='bond-15 atom-14 atom-4' d='M 169.6,147.3 L 133.1,126.3' style='fill:none;fill-rule:evenodd;stroke:#000000;stroke-width:2.0px;stroke-linecap:butt;stroke-linejoin:miter;stroke-opacity:1' />
<path class='bond-16 atom-14 atom-9' d='M 169.6,147.3 L 169.7,189.5' style='fill:none;fill-rule:evenodd;stroke:#000000;stroke-width:2.0px;stroke-linecap:butt;stroke-linejoin:miter;stroke-opacity:1' />
<path d='M 94.6,64.1 L 96.4,63.1 L 98.2,64.1' style='fill:none;stroke:#000000;stroke-width:2.0px;stroke-linecap:butt;stroke-linejoin:miter;stroke-miterlimit:10;stroke-opacity:1;' />
<path d='M 131.1,83.0 L 133.0,84.1 L 133.0,86.2' style='fill:none;stroke:#000000;stroke-width:2.0px;stroke-linecap:butt;stroke-linejoin:miter;stroke-miterlimit:10;stroke-opacity:1;' />
<path d='M 61.8,127.5 L 60.0,126.4 L 60.0,124.3' style='fill:none;stroke:#000000;stroke-width:2.0px;stroke-linecap:butt;stroke-linejoin:miter;stroke-miterlimit:10;stroke-opacity:1;' />
<path d='M 96.6,187.5 L 96.6,189.6 L 98.5,190.7' style='fill:none;stroke:#000000;stroke-width:2.0px;stroke-linecap:butt;stroke-linejoin:miter;stroke-miterlimit:10;stroke-opacity:1;' />
<path d='M 131.4,209.6 L 133.2,210.7 L 135.0,209.6' style='fill:none;stroke:#000000;stroke-width:2.0px;stroke-linecap:butt;stroke-linejoin:miter;stroke-miterlimit:10;stroke-opacity:1;' />
<path d='M 204.5,209.5 L 206.3,210.5 L 208.1,209.5' style='fill:none;stroke:#000000;stroke-width:2.0px;stroke-linecap:butt;stroke-linejoin:miter;stroke-miterlimit:10;stroke-opacity:1;' />
<path d='M 241.0,190.4 L 242.8,189.4 L 242.8,187.2' style='fill:none;stroke:#000000;stroke-width:2.0px;stroke-linecap:butt;stroke-linejoin:miter;stroke-miterlimit:10;stroke-opacity:1;' />
<path d='M 242.7,149.3 L 242.7,147.2 L 240.9,146.1' style='fill:none;stroke:#000000;stroke-width:2.0px;stroke-linecap:butt;stroke-linejoin:miter;stroke-miterlimit:10;stroke-opacity:1;' />
<path d='M 208.0,127.2 L 206.1,126.1 L 204.3,127.2' style='fill:none;stroke:#000000;stroke-width:2.0px;stroke-linecap:butt;stroke-linejoin:miter;stroke-miterlimit:10;stroke-opacity:1;' />
<path class='atom-1' d='M12.8,81.5092 C14.1718,82.2975 15.2229,80.4683 13.8511,79.68 C12.4793,78.8917 13.5303,77.0626 14.9022,77.8508 C16.274,78.6391 17.3251,76.81 15.9533,76.0217 C14.5814,75.2334 15.6325,73.4042 17.0044,74.1925 C18.3762,74.9808 19.4273,73.1516 18.0554,72.3633 C16.6836,71.575 17.7347,69.7459 19.1065,70.5341 C20.4784,71.3224 21.5295,69.4933 20.1576,68.705 C18.7858,67.9167 19.8369,66.0875 21.2087,66.8758 C22.5805,67.6641 23.6316,65.8349 22.2598,65.0466 C20.888,64.2583 21.9391,62.4292 23.3109,63.2174 C24.6827,64.0057 25.7338,62.1766 24.362,61.3883 C22.9902,60.6 24.0412,58.7708 25.4131,59.5591 C26.7849,60.3474 27.836,58.5182 26.4642,57.7299 C25.0923,56.9416 26.1434,55.1125 27.5153,55.9008 C28.8871,56.689 29.9382,54.8599 28.5663,54.0716 C27.1945,53.2833 28.2456,51.4541 29.6174,52.2424 C30.9893,53.0307 32.0404,51.2015 30.6685,50.4132 C29.2967,49.6249 30.3478,47.7958 31.7196,48.5841 C33.0914,49.3723 34.1425,47.5432 32.7707,46.7549 C31.3989,45.9666 32.45,44.1374 33.8218,44.9257' style='fill:none;stroke:#7F7F7F;stroke-width:2.0px;stroke-linecap:butt;stroke-linejoin:miter;stroke-opacity:1' />
</svg>

<svg height="256" viewBox="0 0 256 256" width="256" xmlns="http://www.w3.org/2000/svg"><path d="m0 0h256v256h-256z" fill="#fff"/><g fill="none" stroke-width="2"><path d="m23.3 63.2 36.6 21" stroke="#000"/><path d="m59.9 84.2 36.5-21.1" stroke="#000"/><path d="m66.2 87.9 30.2-17.5" stroke="#000"/><path d="m96.4 63.1 36.6 21" stroke="#000"/><path d="m133 84.1.1 42.2" stroke="#000"/><path d="m126.6 87.8.1 34.8" stroke="#000"/><path d="m133.1 126.3-36.5 21.2" stroke="#000"/><path d="m96.6 147.5-36.6-21.1" stroke="#000"/><path d="m96.5 140.1-30.2-17.3" stroke="#000"/><path d="m96.6 147.5v42.1" stroke="#000"/><path d="m96.6 189.6 36.6 21.1" stroke="#000"/><path d="m103 186 30.2 17.4" stroke="#000"/><path d="m133.2 210.7 36.5-21.2" stroke="#000"/><path d="m169.7 189.5 36.6 21" stroke="#000"/><path d="m176 185.8 30.3 17.4" stroke="#000"/><path d="m206.3 210.5 36.5-21.1" stroke="#000"/><path d="m242.8 189.4-.1-42.2" stroke="#000"/><path d="m236.5 185.7-.1-34.9" stroke="#000"/><path d="m242.7 147.2-36.6-21.1" stroke="#000"/><path d="m206.1 126.1-36.5 21.2" stroke="#000"/><path d="m206.1 133.5-30.1 17.5" stroke="#000"/><path d="m60 126.4-.1-42.2" stroke="#000"/><path d="m169.6 147.3-36.5-21" stroke="#000"/><path d="m169.6 147.3.1 42.2" stroke="#000"/><path d="m94.6 64.1 1.8-1 1.8 1" stroke="#000" stroke-miterlimit="10"/><path d="m131.1 83 1.9 1.1v2.1" stroke="#000" stroke-miterlimit="10"/><path d="m61.8 127.5-1.8-1.1v-2.1" stroke="#000" stroke-miterlimit="10"/><path d="m96.6 187.5v2.1l1.9 1.1" stroke="#000" stroke-miterlimit="10"/><path d="m131.4 209.6 1.8 1.1 1.8-1.1" stroke="#000" stroke-miterlimit="10"/><path d="m204.5 209.5 1.8 1 1.8-1" stroke="#000" stroke-miterlimit="10"/><path d="m241 190.4 1.8-1v-2.2" stroke="#000" stroke-miterlimit="10"/><path d="m242.7 149.3v-2.1l-1.8-1.1" stroke="#000" stroke-miterlimit="10"/><path d="m208 127.2-1.9-1.1-1.8 1.1" stroke="#000" stroke-miterlimit="10"/><path d="m12.8 81.509c1.372.789 2.423-1.041 1.051-1.829s-.321-2.617 1.051-1.829 2.423-1.041 1.051-1.829c-1.372-.789-.32-2.618 1.051-1.829 1.372.788 2.423-1.041 1.051-1.83-1.371-.788-.32-2.617 1.052-1.829 1.371.788 2.423-1.041 1.051-1.829s-.321-2.617 1.051-1.829 2.423-1.041 1.051-1.829c-1.372-.789-.321-2.618 1.051-1.83 1.372.789 2.423-1.04 1.051-1.829-1.372-.788-.321-2.617 1.051-1.829s2.423-1.041 1.051-1.829-.321-2.617 1.051-1.829 2.423-1.041 1.051-1.829c-1.371-.789-.32-2.618 1.051-1.83 1.372.789 2.423-1.04 1.052-1.829-1.372-.788-.321-2.617 1.051-1.829 1.371.788 2.423-1.041 1.051-1.829s-.321-2.618 1.051-1.829" stroke="#7f7f7f"/></g></svg>
